svgs/sharp-thin/person-sledding.svg

<svg xmlns="http://www.w3.org/2000/svg" viewBox="0 0 512 512"><!--! Font Awesome Pro 6.6.0 by @fontawesome - https://fontawesome.com License - https://fontawesome.com/license (Commercial License) Copyright 2024 Fonticons, Inc. --><path d="M358.6 198.6l11.3-11.3L381.3 176l-11.3-11.3-11.3-11.3-3.2-3.2-12.8-12.8-9.4-9.4L320 128l-160 0-16 0-16 0 0 16 0 32 0 16 16 0 16 0 57.5 0 28.8 0-24 16-36.1 24.1c-39.5 26.3-20.9 87.9 26.6 87.9l91.2 0 16 0 0 16 0 32 0 16 0 16 16 0 32 0 16 0 0-16 0-16 0-80 0-16 0-16-16 0-16 0-28.1 0-22.6 0 16-16 41.4-41.4zM352 272l16 0 0 16 0 80 0 16-32 0 0-16 0-48 0-16-16 0-107.2 0c-31.7 0-44.1-41.1-17.8-58.6l60.1-40.1 44-29.3-52.8 0L160 176l-16 0 0-32 16 0 160 0 6.6 0 4.7 4.7 12.8 12.8 3.2 3.2L358.6 176l-11.3 11.3-57.4 57.4L262.6 272l38.6 0 50.7 0zM368 80a32 32 0 1 1 64 0 32 32 0 1 1 -64 0zm32 48a48 48 0 1 0 0-96 48 48 0 1 0 0 96zM4.5 271.2l424 205.1 2.9 1.4 3.1-1 64-21.1 7.6-2.5-5-15.2-7.6 2.5-60.9 20.1L11.5 256.8l-7 14.4z"/></svg>

<svg xmlns="http://www.w3.org/2000/svg" viewBox="0 0 512 512"><!--! Font Awesome Pro 6.5.2 by @fontawesome - https://fontawesome.com License - https://fontawesome.com/license (Commercial License) Copyright 2024 Fonticons, Inc. --><path d="M358.6 198.6l11.3-11.3L381.3 176l-11.3-11.3-11.3-11.3-3.2-3.2-12.8-12.8-9.4-9.4H320 160 144 128v16 32 16h16 16 57.5 28.8l-24 16-36.1 24.1c-39.5 26.3-20.9 87.9 26.6 87.9H304h16v16 32 16 16h16 32 16V384 368 288 272 256H368 352 323.9 301.3l16-16 41.4-41.4zM352 272h16v16 80 16H336V368 320 304H320 212.8c-31.7 0-44.1-41.1-17.8-58.6l60.1-40.1 44-29.3H246.3 160 144V144h16H320h6.6l4.7 4.7 12.8 12.8 3.2 3.2L358.6 176l-11.3 11.3-57.4 57.4L262.6 272h38.6H352zM368 80a32 32 0 1 1 64 0 32 32 0 1 1 -64 0zm32 48a48 48 0 1 0 0-96 48 48 0 1 0 0 96zM4.5 271.2l424 205.1 2.9 1.4 3.1-1 64-21.1 7.6-2.5-5-15.2-7.6 2.5-60.9 20.1L11.5 256.8l-7 14.4z"/></svg>
